src/status/symbolic/bluetooth-disabled-symbolic.svg

<svg width="16" height="16" version="1.1" xmlns="http://www.w3.org/2000/svg">
 <path d="m7.5 1c-0.277 0-0.5 0.223-0.5 0.5v4.875l-1.719-1.5c-0.312-0.273-0.757-0.22-1.03 0.094a0.753 0.753 0 0 0 0.062 1.062l2.25 1.969-2.25 1.969a0.753 0.753 0 0 0-0.063 1.062c0.274 0.313 0.719 0.367 1.031 0.094l1.72-1.5v4.875c0 0.277 0.222 0.5 0.5 0.5 0.282 0 0.437-0.02 0.655-0.188l3.532-3.156a0.78 0.78 0 0 0 0.218-0.375 0.745 0.745 0 0 0 0.032-0.281 0.723 0.723 0 0 0-0.032-0.156 0.78 0.78 0 0 0-0.218-0.375l-2.813-2.47 2.813-2.468a0.78 0.78 0 0 0 0.218-0.375 0.712 0.712 0 0 0 0-0.437 0.78 0.78 0 0 0-0.218-0.375l-3.532-3.157c-0.199-0.16-0.427-0.187-0.656-0.187zm0.5 2.063 2.094 1.875-2.094 1.812zm0 6.187 2.094 1.813-2.094 1.875z" color="#bebebe" fill="#363636" opacity=".35" overflow="visible"/>
</svg>

<svg width="16" height="16" xmlns="http://www.w3.org/2000/svg"><path d="M7.5 1c-.277 0-.5.223-.5.5v4.875l-1.719-1.5c-.312-.273-.757-.22-1.03.094a.753.753 0 00.062 1.062L6.563 8l-2.25 1.969a.753.753 0 00-.063 1.062c.274.313.719.367 1.031.094l1.72-1.5V14.5c0 .277.222.5.5.5.282 0 .437-.02.655-.188l3.532-3.156a.78.78 0 00.218-.375.745.745 0 00.032-.281.723.723 0 00-.032-.156.78.78 0 00-.218-.375l-2.813-2.47 2.813-2.468a.78.78 0 00.218-.375.712.712 0 000-.437.78.78 0 00-.218-.375L8.156 1.187C7.957 1.027 7.729 1 7.5 1zM8 3.063l2.094 1.875L8 6.75zM8 9.25l2.094 1.813L8 12.938z" color="#bebebe" fill="#363636" opacity=".35" overflow="visible"/></svg>
